assets/symbols/mulberry/pyramid_square_base.svg

<svg height="850.394" viewBox="0 0 850.394 850.394" width="850.394" xmlns="http://www.w3.org/2000/svg"><g fill="#efdcef"><path d="m746 552-244.26-44.54 19.47 211.11-.59 2.36-421.85-105.46 366.46-518.26 287.92 452.83-5.45 4.18z"/><path d="m501.74 507.46 244.26 44.54 1.7 2.22-219.65 168.57-7.43-1.86.59-2.36z"/></g><g fill="none"><g><path d="m112 612 293.02-122.17 56.98-375.83m-56.98 375.83 96.72 17.63 244.26 44.54" stroke="#904788" stroke-width="11"/><g stroke="#50264c" stroke-width="18"><path d="m747.7 554.22 5.45-4.18-287.92-452.83-366.46 518.26 421.85 105.46 7.43 1.86z"/><path d="m465.26 111.98 36.48 395.48 19.47 211.11"/></g></g><path d="m0 0h850.394v850.394h-850.394z"/></g></svg>

<svg xmlns="http://www.w3.org/2000/svg" width="850.394" height="850.394" viewBox="0 0 850.394 850.394" overflow="visible"><g fill="#efdcef"><path d="M746 552l-244.26-44.54 19.47 211.11-.59 2.36L98.77 615.47 465.23 97.21l287.92 452.83-5.45 4.18z"/><path d="M501.74 507.46L746 552l1.7 2.22-219.65 168.57-7.43-1.86.59-2.36z"/></g><g fill="none"><path stroke="#904788" stroke-width="11" d="M112 612l293.02-122.17L462 114M405.02 489.83l96.72 17.63L746 552"/><path stroke="#50264c" stroke-width="18" d="M747.7 554.22l5.45-4.18L465.23 97.21 98.77 615.47l421.85 105.46 7.43 1.86z"/><path stroke="#50264c" stroke-width="18" d="M465.26 111.98l36.48 395.48 19.47 211.11"/></g><path fill="none" d="M0 0h850.394v850.394H0z"/></svg>
